docs/.vuepress/public/svg/jetbrains.svg

<?xml version="1.0" encoding="UTF-8" standalone="no"?>
<!DOCTYPE svg PUBLIC "-//W3C//DTD SVG 1.1//EN" "http://www.w3.org/Graphics/SVG/1.1/DTD/svg11.dtd">
<svg width="100%" height="100%" viewBox="0 0 298 64" version="1.1" xmlns="http://www.w3.org/2000/svg"
    xmlns:xlink="http://www.w3.org/1999/xlink" xml:space="preserve" xmlns:serif="http://www.serif.com/"
    style="fill-rule:evenodd;clip-rule:evenodd;stroke-linejoin:round;stroke-miterlimit:2;">
    <rect x="0" y="0" width="297.659" height="64" style="fill:#fff;" />
    <path
        d="M86.484,40.586c-0,0.846 -0.179,1.593 -0.537,2.25c-0.344,0.646 -0.87,1.176 -1.514,1.524c-0.657,0.358 -1.394,0.538 -2.24,0.538l-4.193,0l-0,6.104l5.079,0c1.912,0 3.625,-0.428 5.148,-1.285c1.497,-0.831 2.737,-2.058 3.585,-3.545c0.866,-1.503 1.305,-3.196 1.305,-5.088l-0,-20.066l-6.633,0l-0,19.568Zm17.856,-1.823l13.891,0l0,-5.606l-13.891,0l0,-6.363l15.355,0l0,-5.776l-21.818,0l-0,29.974l22.246,0l-0,-5.776l-15.783,0l-0,-6.453Zm17.865,-11.8l8.882,0l-0,24.02l6.633,0l-0,-24.02l8.842,0l-0,-5.945l-24.367,0l-0,5.955l0.01,-0.01Zm47.022,9.002c-0.531,-0.279 -1.092,-0.496 -1.673,-0.647c0.439,-0.123 0.866,-0.287 1.275,-0.488c1.096,-0.568 1.962,-1.364 2.579,-2.39c0.618,-1.026 0.936,-2.2 0.936,-3.535c-0,-1.524 -0.418,-2.888 -1.244,-4.093c-0.827,-1.195 -1.992,-2.131 -3.486,-2.808c-1.494,-0.667 -3.206,-1.006 -5.118,-1.006l-13.315,0l-0,29.974l13.574,0c2.011,0 3.804,-0.348 5.387,-1.055c1.573,-0.707 2.798,-1.683 3.675,-2.948c0.866,-1.255 1.304,-2.689 1.304,-4.302c-0,-1.484 -0.338,-2.808 -1.026,-3.983c-0.673,-1.163 -1.665,-2.11 -2.858,-2.729l-0.01,0.01Zm-13.603,-9.918l5.886,0c0.816,0 1.533,0.15 2.161,0.438c0.6,0.266 1.109,0.702 1.464,1.255c0.348,0.537 0.527,1.175 0.527,1.902c-0,0.727 -0.179,1.414 -0.527,1.981c-0.349,0.568 -0.837,0.996 -1.464,1.305c-0.628,0.309 -1.345,0.458 -2.161,0.458l-5.886,0l-0,-7.35l-0,0.011Zm10.138,18.134c-0.378,0.567 -0.916,1.006 -1.603,1.314c-0.697,0.309 -1.484,0.458 -2.39,0.458l-6.145,0l-0,-7.687l6.145,0c0.886,0 1.673,0.169 2.37,0.497c0.687,0.329 1.235,0.787 1.613,1.385c0.378,0.597 0.578,1.274 0.578,2.041c-0,0.767 -0.19,1.424 -0.568,1.992Zm29.596,-5.308c1.663,-0.797 2.947,-1.922 3.864,-3.366c0.916,-1.444 1.374,-3.117 1.374,-5.029c-0,-1.912 -0.448,-3.525 -1.344,-4.959c-0.897,-1.434 -2.171,-2.54 -3.814,-3.326c-1.644,-0.787 -3.546,-1.175 -5.717,-1.175l-13.124,0l-0,29.974l6.642,0l-0,-10.914l4.322,0l6.084,10.914l7.578,0l-6.851,-11.72c0.339,-0.12 0.677,-0.25 0.996,-0.399l-0.01,0Zm-2.151,-6.124c-0.369,0.631 -0.921,1.135 -1.583,1.444c-0.688,0.338 -1.494,0.507 -2.42,0.507l-5.975,0l-0,-8.295l5.975,0c0.926,0 1.732,0.17 2.42,0.498c0.659,0.309 1.211,0.808 1.583,1.434c0.368,0.618 0.558,1.355 0.558,2.19c-0,0.837 -0.19,1.574 -0.558,2.202l-0,0.02Zm20.594,-11.731l-10.706,29.974l6.742,0l2.121,-6.612l11.114,0l2.27,6.612l6.612,0l-10.964,-29.974l-7.189,0Zm-0.339,18.343l3.445,-10.576l0.409,-1.922l0.408,1.922l3.685,10.576l-7.947,0Zm20.693,11.631l6.851,0l-0,-29.974l-6.851,0l-0,29.974Zm31.02,-9.7l-12.896,-20.274l-6.463,0l-0,29.974l6.055,0l-0,-20.275l12.826,20.275l6.533,0l-0,-29.974l-6.055,0l-0,20.275l-0,-0.001Zm31.528,-3.355c-0.647,-1.245 -1.564,-2.29 -2.729,-3.137c-1.165,-0.846 -2.509,-1.404 -4.023,-1.693l-5.098,-1.045c-0.797,-0.19 -1.434,-0.518 -1.902,-0.996c-0.469,-0.478 -0.708,-1.076 -0.708,-1.783c-0,-0.647 0.17,-1.205 0.518,-1.683c0.339,-0.478 0.827,-0.846 1.444,-1.115c0.618,-0.269 1.335,-0.398 2.151,-0.398c0.817,-0 1.554,0.139 2.181,0.418c0.627,0.279 1.115,0.667 1.464,1.175c0.349,0.508 0.528,1.075 0.528,1.723l6.642,-0c-0.04,-1.743 -0.528,-3.287 -1.444,-4.621c-0.916,-1.344 -2.201,-2.39 -3.834,-3.147c-1.633,-0.757 -3.505,-1.135 -5.597,-1.135c-2.091,-0 -3.943,0.388 -5.566,1.175c-1.623,0.787 -2.898,1.872 -3.804,3.266c-0.906,1.395 -1.364,2.978 -1.364,4.76c-0,1.444 0.288,2.749 0.876,3.904c0.578,1.154 1.429,2.149 2.479,2.898c1.076,0.767 2.311,1.304 3.725,1.603l5.397,1.115c0.886,0.21 1.584,0.598 2.101,1.156c0.518,0.557 0.767,1.244 0.767,2.08c0.008,0.646 -0.191,1.278 -0.567,1.803c-0.379,0.528 -0.907,0.936 -1.584,1.225c-0.677,0.289 -1.474,0.428 -2.39,0.428c-0.916,0 -1.782,-0.159 -2.529,-0.478c-0.747,-0.318 -1.325,-0.776 -1.733,-1.374c-0.418,-0.587 -0.617,-1.275 -0.617,-2.041l-6.642,0c0.029,1.872 0.527,3.515 1.513,4.949c0.976,1.424 2.32,2.54 4.033,3.336c1.713,0.797 3.675,1.195 5.886,1.195c2.21,0 4.202,-0.408 5.915,-1.225c1.723,-0.816 3.057,-1.942 4.023,-3.376c0.966,-1.434 1.444,-3.057 1.444,-4.87c-0,-1.483 -0.329,-2.847 -0.976,-4.102l0.02,0.01Z"
        style="fill-rule:nonzero;" />
    <path
        d="M20.34,3.66l-16.68,16.68c-2.343,2.344 -3.66,5.526 -3.66,8.84l0,29.82c0,2.76 2.24,5 5,5l29.82,0c3.32,0 6.49,-1.32 8.84,-3.66l16.68,-16.68c2.34,-2.34 3.66,-5.52 3.66,-8.84l0,-29.82c0,-2.76 -2.24,-5 -5,-5l-29.82,-0c-3.32,-0 -6.49,1.32 -8.84,3.66Z"
        style="fill:url(#_Linear1);fill-rule:nonzero;" />
    <rect x="8" y="16" width="40" height="40" style="fill-rule:nonzero;" />
    <rect x="13" y="47" width="17" height="4" style="fill:#fff;fill-rule:nonzero;" />
    <defs>
        <linearGradient id="_Linear1" x1="0" y1="0" x2="1" y2="0" gradientUnits="userSpaceOnUse"
            gradientTransform="matrix(61.77,-60.91,60.91,61.77,0.85,62.72)">
            <stop offset="0" style="stop-color:#ff9419;stop-opacity:1" />
            <stop offset="0.43" style="stop-color:#ff021d;stop-opacity:1" />
            <stop offset="0.99" style="stop-color:#e600ff;stop-opacity:1" />
            <stop offset="1" style="stop-color:#e600ff;stop-opacity:1" />
        </linearGradient>
    </defs>
</svg>

<?xml version="1.0" encoding="UTF-8" standalone="no"?>
<!DOCTYPE svg PUBLIC "-//W3C//DTD SVG 1.1//EN" "http://www.w3.org/Graphics/SVG/1.1/DTD/svg11.dtd">
<svg width="100%" height="100%" viewBox="0 0 310 70" version="1.1" xmlns="http://www.w3.org/2000/svg"
    xmlns:xlink="http://www.w3.org/1999/xlink" xml:space="preserve" xmlns:serif="http://www.serif.com/"
    style="fill-rule:evenodd;clip-rule:evenodd;stroke-linejoin:round;stroke-miterlimit:2;">
    <g transform="matrix(3.16724,0,0,2.1875,5.32907e-14,-1.95399e-14)">
        <path
            d="M97.877,8L97.877,24C97.877,28.415 95.401,32 92.352,32L5.525,32C2.476,32 0,28.415 0,24L0,8C0,3.585 2.476,0 5.525,0L92.352,0C95.401,0 97.877,3.585 97.877,8Z"
            style="fill:rgb(235,235,235);" />
    </g>
    <g transform="matrix(1,0,0,1,6,3)">
        <path
            d="M86.484,40.586C86.484,41.432 86.305,42.179 85.947,42.836C85.603,43.482 85.077,44.012 84.433,44.36C83.776,44.718 83.039,44.898 82.193,44.898L78,44.898L78,51.002L83.079,51.002C84.991,51.002 86.704,50.574 88.227,49.717C89.724,48.886 90.964,47.659 91.812,46.172C92.678,44.669 93.117,42.976 93.117,41.084L93.117,21.018L86.484,21.018L86.484,40.586ZM104.34,38.763L118.231,38.763L118.231,33.157L104.34,33.157L104.34,26.794L119.695,26.794L119.695,21.018L97.877,21.018L97.877,50.992L120.123,50.992L120.123,45.216L104.34,45.216L104.34,38.763ZM122.205,26.963L131.087,26.963L131.087,50.983L137.72,50.983L137.72,26.963L146.562,26.963L146.562,21.018L122.195,21.018L122.195,26.973L122.205,26.963ZM169.227,35.965C168.696,35.686 168.135,35.469 167.554,35.318C167.993,35.195 168.42,35.031 168.829,34.83C169.925,34.262 170.791,33.466 171.408,32.44C172.026,31.414 172.344,30.24 172.344,28.905C172.344,27.381 171.926,26.017 171.1,24.812C170.273,23.617 169.108,22.681 167.614,22.004C166.12,21.337 164.408,20.998 162.496,20.998L149.181,20.998L149.181,50.972L162.755,50.972C164.766,50.972 166.559,50.624 168.142,49.917C169.715,49.21 170.94,48.234 171.817,46.969C172.683,45.714 173.121,44.28 173.121,42.667C173.121,41.183 172.783,39.859 172.095,38.684C171.422,37.521 170.43,36.574 169.237,35.955L169.227,35.965ZM155.624,26.047L161.51,26.047C162.326,26.047 163.043,26.197 163.671,26.485C164.271,26.751 164.78,27.187 165.135,27.74C165.483,28.277 165.662,28.915 165.662,29.642C165.662,30.369 165.483,31.056 165.135,31.623C164.786,32.191 164.298,32.619 163.671,32.928C163.043,33.237 162.326,33.386 161.51,33.386L155.624,33.386L155.624,26.036L155.624,26.047ZM165.762,44.181C165.384,44.748 164.846,45.187 164.159,45.495C163.462,45.804 162.675,45.953 161.769,45.953L155.624,45.953L155.624,38.266L161.769,38.266C162.655,38.266 163.442,38.435 164.139,38.763C164.826,39.092 165.374,39.55 165.752,40.148C166.13,40.745 166.33,41.422 166.33,42.189C166.33,42.956 166.14,43.613 165.762,44.181ZM195.358,38.873C197.021,38.076 198.305,36.951 199.222,35.507C200.138,34.063 200.596,32.39 200.596,30.478C200.596,28.566 200.148,26.953 199.252,25.519C198.355,24.085 197.081,22.979 195.438,22.193C193.794,21.406 191.892,21.018 189.721,21.018L176.597,21.018L176.597,50.992L183.239,50.992L183.239,40.078L187.561,40.078L193.645,50.992L201.223,50.992L194.372,39.272C194.711,39.152 195.049,39.022 195.368,38.873L195.358,38.873ZM193.207,32.749C192.838,33.38 192.286,33.884 191.624,34.193C190.936,34.531 190.13,34.7 189.204,34.7L183.229,34.7L183.229,26.405L189.204,26.405C190.13,26.405 190.936,26.575 191.624,26.903C192.283,27.212 192.835,27.711 193.207,28.337C193.575,28.955 193.765,29.692 193.765,30.527C193.765,31.364 193.575,32.101 193.207,32.729L193.207,32.749ZM213.801,21.018L203.095,50.992L209.837,50.992L211.958,44.38L223.072,44.38L225.342,50.992L231.954,50.992L220.99,21.018L213.801,21.018ZM213.462,39.361L216.907,28.785L217.316,26.863L217.724,28.785L221.409,39.361L213.462,39.361ZM234.155,50.992L241.006,50.992L241.006,21.018L234.155,21.018L234.155,50.992ZM265.175,41.292L252.279,21.018L245.816,21.018L245.816,50.992L251.871,50.992L251.871,30.717L264.697,50.992L271.23,50.992L271.23,21.018L265.175,21.018L265.175,41.293L265.175,41.292ZM296.703,37.937C296.056,36.692 295.139,35.647 293.974,34.8C292.809,33.954 291.465,33.396 289.951,33.107L284.853,32.062C284.056,31.872 283.419,31.544 282.951,31.066C282.482,30.588 282.243,29.99 282.243,29.283C282.243,28.636 282.413,28.078 282.761,27.6C283.1,27.122 283.588,26.754 284.205,26.485C284.823,26.216 285.54,26.087 286.356,26.087C287.173,26.087 287.91,26.226 288.537,26.505C289.164,26.784 289.652,27.172 290.001,27.68C290.35,28.188 290.529,28.755 290.529,29.403L297.171,29.403C297.131,27.66 296.643,26.116 295.727,24.782C294.811,23.438 293.526,22.392 291.893,21.635C290.26,20.878 288.388,20.5 286.296,20.5C284.205,20.5 282.353,20.888 280.73,21.675C279.107,22.462 277.832,23.547 276.926,24.941C276.02,26.336 275.562,27.919 275.562,29.701C275.562,31.145 275.85,32.45 276.438,33.605C277.016,34.759 277.867,35.754 278.917,36.503C279.993,37.27 281.228,37.807 282.642,38.106L288.039,39.221C288.925,39.431 289.623,39.819 290.14,40.377C290.658,40.934 290.907,41.621 290.907,42.457C290.915,43.103 290.716,43.735 290.34,44.26C289.961,44.788 289.433,45.196 288.756,45.485C288.079,45.774 287.282,45.913 286.366,45.913C285.45,45.913 284.584,45.754 283.837,45.435C283.09,45.117 282.512,44.659 282.104,44.061C281.686,43.474 281.487,42.786 281.487,42.02L274.845,42.02C274.874,43.892 275.372,45.535 276.358,46.969C277.334,48.393 278.678,49.509 280.391,50.305C282.104,51.102 284.066,51.5 286.277,51.5C288.487,51.5 290.479,51.092 292.192,50.275C293.915,49.459 295.249,48.333 296.215,46.899C297.181,45.465 297.659,43.842 297.659,42.029C297.659,40.546 297.33,39.182 296.683,37.927L296.703,37.937Z"
            style="fill-rule:nonzero;" />
        <g>
            <path
                d="M20.34,3.66L3.66,20.34C1.317,22.684 0,25.866 0,29.18L0,59C0,61.76 2.24,64 5,64L34.82,64C38.14,64 41.31,62.68 43.66,60.34L60.34,43.66C62.68,41.32 64,38.14 64,34.82L64,5C64,2.24 61.76,0 59,0L29.18,0C25.86,0 22.69,1.32 20.34,3.66Z"
                style="fill:url(#_Linear1);fill-rule:nonzero;" />
            <rect x="8" y="16" width="40" height="40" />
            <rect x="13" y="47" width="17" height="4" style="fill:white;" />
        </g>
    </g>
    <defs>
        <linearGradient id="_Linear1" x1="0" y1="0" x2="1" y2="0" gradientUnits="userSpaceOnUse"
            gradientTransform="matrix(61.77,-60.91,60.91,61.77,0.85,62.72)">
            <stop offset="0" style="stop-color:rgb(255,148,25);stop-opacity:1" />
            <stop offset="0.43" style="stop-color:rgb(255,2,29);stop-opacity:1" />
            <stop offset="0.99" style="stop-color:rgb(230,0,255);stop-opacity:1" />
            <stop offset="1" style="stop-color:rgb(230,0,255);stop-opacity:1" />
        </linearGradient>
    </defs>
</svg>
